X: 1
T:Aonzo Family Scales
C:
N:Transcribed by Kim Davis
L:1/8
Q:1/4=230
M:4/4
K:C
z8 | G,A, B,C DE ^FG | AB cd e^f gf | ed cB AG ^FE | 
DC B,A, ^G,_B, C^C | ^DF G^G _Bc ^c^d | fg ^g=g f^d ^c=c | _B^G =GF ^D^C =C_B, | 
A,B, ^CD E^F ^GA | B^c de ^f^g ag | ^fe d^c BA ^G^F | ED ^CB, _B,=C D^D | 
FG A_B cd ^df | ga _ba gf ^d=d | c_B AG F^D =DC | B,^C ^DE ^F^G _B=B | ^c^d e^f ^g_b =b_b | 
^g^f e^d ^cB _B^G | ^FE ^D^C =C=D E=F | GA Bc de fg | ab c'b ag fe | dc BA GF ED | 
^C^D F^F ^G_B c^c | ^df ^f^g _bc' ^c'=c' | _b^g ^f=f ^d^c =c_B | ^G^F =F^D =DE ^F=G | 
AB ^cd e^f ga | b^c' d'c' ba g^f | ed ^cB AG ^FE | ^DF G^G _Bc d^d | fg ^g_b c'd' ^d'=d' | 
c'_b ^g=g f^d =dc | _B^G =GF E^F ^GA | B^c ^de ^f^g ab | ^c'^d' e'd' c'b a^g | 
^fe ^d^c BA ^G^F | FG A_B cd ef | ga _bc' d'e' f'e' | d'c' _ba gf ed | c_B AG E^F ^GA | 
B^c ^de ^f^g ab | ^c'^d' e'd' c'b a^g | ^fe ^d^c BA ^G^F | ^DF G^G _Bc d^d | fg ^g_b c'd' ^d'=d' | 
c'_b ^g=g f^d =dc | _B^G =GF DE ^FG | AB ^cd e^f ga | b^c' d'c' ba g^f | ed ^cB AG ^FE | 
^C^D F^F ^G_B c^c | ^df ^f^g _bc' ^c'=c' | _b^g ^f=f ^d^c =c_B | ^G^F =F^D C=D EF | 
GA Bc de fg | ab c'b ag fe | dc BA GF ED | B,^C ^DE ^F^G _B=B | ^c^d e^f ^g_b =b_b | 
^g^f e^d ^cB _B^G | ^FE ^D^C _B,=C =D^D | FG A_B cd ^df | ga _ba gf ^d=d | c_B AG F^D =DC | 
A,B, ^CD E^F ^GA | B^c de ^f^g ag | ^fe d^c BA ^G^F | ED ^CB, ^G,_B, =C^C | ^DF G^G _Bc ^c^d | 
fg ^g=g f^d ^c=c | _B^G =GF ^D^C =C_B, | G,A, B,C DE ^FG | AB cd e^f gf | ed cB AG ^FE | 
DC B,A, G,4 |

